X:1
T: Rocky Slope
R: reel
C: Rick Gagne
N: 1988 on bouzouki
D: Dun Creagan: The 80s Live
M: 4/4
Q: 1/4=175
K: Ador
AB | "C"cABc "D"d2de | "G"dcAG "Am"A2AB | "C"c/B/ABc "D"d2de | dcAG "Am"A2ef |
"G"gefg "Am"a2ab | "C"agec "D"d2AB | "C"cABc "D"d2de |1 "G"dcAG "Am"A2 :|\
[2 "G"dcAG "Am"A4 ||
"Em"eg~g2 "Am"a2ge | "D"d2cd "Em"eg~g2 | "G"fg~g2 "Am"a2ge | "D"d2cd "Am"eAA2 | "Em"egfg "Am"a2ge | "D"d2cd "Em"e2de | "C"cABc "D"d2de |1 "G"dcAG "Am"A4 :|\
[2 "G"dcAG "Am"A2 ||
